static/assets/head_icons_png/man/bizi/1017253.svg

<svg xmlns="http://www.w3.org/2000/svg" width="144" height="185"><g transform="translate(67 99)"><path d="M76.95 86H-67V-99H76.95V86" fill="none"/><radialGradient id="a" gradientUnits="userSpaceOnUse" gradientTransform="matrix(.02107 -.0095 .01035 .03552 16.1 -13.6)" spreadMethod="pad" cx="0" cy="0" r="819.2" fx="210473" fy="0"><stop offset=".337" stop-color="#f9c29f" stop-opacity=".741"/><stop offset="1" stop-color="#fedec1" stop-opacity="0"/></radialGradient><path d="M39.35-13.75Q39.85-7.5 28.3.5 24.6 3 22.65 11.2v.15l-.05.05-.65-.65Q17.9.85 16.25-11q-1.7-11.85-1.85-30.7l.9 3.9-.85-4.25q9.75 18.45 18.5 20.2 3.75.8 4.5 1.45 1.5 1.4 1.9 6.65" fill="url(#a)"/><path d="M21.75 49.25q-.5 2.25-6.25 3.95-1.25.55-2.2 1.15l-.95.7-1.75 1.55-.4.5.15-.35q2.05-3.65 4.1-5.55l1.6-1.2q3.5-2.95 5.5-1.25l.2.5m-48.1-2.5q1.95-1.7 5.45 1.25l.9.6.7.6q2.05 1.9 4.15 5.55l.15.35-.45-.5q-.7-.8-1.75-1.55l-.9-.7-1.9-1-.35-.15q-5.75-1.7-6.2-3.95l.2-.5" fill="#823909"/><linearGradient id="b" gradientUnits="userSpaceOnUse" gradientTransform="matrix(0 .08636 -.0821 0 .2 -4.65)" x1="-819.2" x2="819.2"><stop offset=".314" stop-color="#f8be98" stop-opacity=".431"/><stop offset="1" stop-color="#f8be98"/></linearGradient><path d="M14.2-62.7q-.6 14.4 2.5 36.55 3.05 22.1 6.55 31.65 3.45 9.55 9.65 17.4 6.15 7.85 4.95 17.35l-.2 1.25q-.6 3.2-2.15 5.3l-.95 1.1q-2.75 2.6-5.25 3.85-2.55 1.2-4.4 1.45-5.5.45-9.8 2.8l-7.7 4.3q-5.2 2.35-9.15 2.3-3-.1-5.3-1.6l-8.8-5.95q-1.85-1.4-4.15-2.25-1.7-.7-3.65-1.05l-.6-.15Q-29 50.1-32 48.3q-8.65-6.5-3.9-13.6 4.3-6.25 16.05 2.8 3.15 2.45 6.85 6l2.75 1.55q9.4 4.45 20.8-1.15Q23.6 37.45 21.8 29.2l-2.5-6.25q-7-13.6-9.2-31.9-3.4-28.6 4.1-62.95v9.2m7.35 111.45q-2-1.7-5.5 1.25l-1.6 1.2q-2.05 1.9-4.1 5.55l-.15.35.4-.5 1.75-1.55.95-.7q.95-.6 2.2-1.15 5.75-1.7 6.25-3.95l-.2-.5m-48.1-1.5q.45 2.25 6.2 3.95l.35.15 1.9 1 .9.7q1.05.75 1.75 1.55l.45.5-.15-.35q-2.1-3.65-4.15-5.55l-.7-.6-.9-.6q-3.5-2.95-5.45-1.25l-.2.5" fill="url(#b)"/><radialGradient id="c" gradientUnits="userSpaceOnUse" gradientTransform="matrix(.01059 .00098 -.00038 .0407 1.5 -11.95)" spreadMethod="pad" cx="0" cy="0" r="819.2" fx="0" fy="0"><stop offset=".314" stop-color="#fff" stop-opacity=".431"/><stop offset="1" stop-color="#fff" stop-opacity="0"/></radialGradient><path d="M6.3-34.75Q8.1-24.9 8-11.2 7.75 2.45 5.75 11.9l-1.3 4.95-.45.7Q2.7 21.3 1.05 21.2q-1.8-.2-3.15-4.35l-.3-.8-1.25-4.85q-1.85-9.85-1.7-23.55.2-13.85 2.3-23.45 1.9-9.35 4.65-8.95 2.8.2 4.7 10" fill="url(#c)"/><radialGradient id="d" gradientUnits="userSpaceOnUse" gradientTransform="rotate(3.009 -560.043 2.978) scale(.00819)" spreadMethod="pad" cx="0" cy="0" r="819.2" fx="0" fy="0"><stop offset=".314" stop-color="#fff" stop-opacity=".431"/><stop offset="1" stop-color="#fff" stop-opacity="0"/></radialGradient><path d="M3.25 37.15Q1.3 39-1.3 38.8q-2.65-.2-4.5-2.3-1.8-1.95-1.65-4.6.05-2.65 1.95-4.5 2.15-1.8 4.95-1.65 2.7.05 4.5 2 1.85 2.15 1.65 4.9-.2 2.7-2.35 4.5" fill="url(#d)"/></g></svg>

<?xml version="1.0" encoding="utf-8"?>
<svg version="1.1" id="Layer_1"
xmlns="http://www.w3.org/2000/svg"
xmlns:xlink="http://www.w3.org/1999/xlink"
xmlns:author="http://www.sothink.com"
width="144px" height="185px"
xml:space="preserve">
<g id="461" transform="matrix(1, 0, 0, 1, 67, 99)">
<path style="fill:#941410;fill-opacity:0" d="M76.95,86L-67 86L-67 -99L76.95 -99L76.95 86" />
<radialGradient
id="RadialGradID_4037" gradientUnits="userSpaceOnUse" gradientTransform="matrix(0.0210724, -0.00949097, 0.0103455, 0.0355225, 16.1, -13.6)" spreadMethod ="pad" cx="0" cy="0" r="819.2" fx="210473" fy="0" >
<stop  offset="0.337255"  style="stop-color:#F9C29F;stop-opacity:0.741176" />
<stop  offset="1"  style="stop-color:#FEDEC1;stop-opacity:0" />
</radialGradient>
<path style="fill:url(#RadialGradID_4037) " d="M39.35,-13.75Q39.85 -7.5 28.3 0.5Q24.6 3 22.65 11.2L22.65 11.35L22.6 11.4L21.95 10.75Q17.9 0.85 16.25 -11Q14.55 -22.85 14.4 -41.7L15.3 -37.8L14.45 -42.05Q24.2 -23.6 32.95 -21.85Q36.7 -21.05 37.45 -20.4Q38.95 -19 39.35 -13.75" />
<path style="fill:#823909;fill-opacity:1" d="M21.75,49.25Q21.25 51.5 15.5 53.2Q14.25 53.75 13.3 54.35L12.35 55.05L10.6 56.6L10.2 57.1L10.35 56.75Q12.4 53.1 14.45 51.2L16.05 50Q19.55 47.05 21.55 48.75L21.75 49.25M-26.35,46.75Q-24.4 45.05 -20.9 48L-20 48.6L-19.3 49.2Q-17.25 51.1 -15.15 54.75L-15 55.1L-15.45 54.6Q-16.15 53.8 -17.2 53.05L-18.1 52.35L-20 51.35L-20.35 51.2Q-26.1 49.5 -26.55 47.25L-26.35 46.75" />
<linearGradient
id="LinearGradID_4038" gradientUnits="userSpaceOnUse" gradientTransform="matrix(0, 0.0863647, -0.0820923, 0, 0.2, -4.65)" spreadMethod ="pad" x1="-819.2" y1="0" x2="819.2" y2="0" >
<stop  offset="0.313725" style="stop-color:#F8BE98;stop-opacity:0.431373" />
<stop  offset="1" style="stop-color:#F8BE98;stop-opacity:1" />
</linearGradient>
<path style="fill:url(#LinearGradID_4038) " d="M14.2,-62.7Q13.6 -48.3 16.7 -26.15Q19.75 -4.05 23.25 5.5Q26.7 15.05 32.9 22.9Q39.05 30.75 37.85 40.25L37.65 41.5Q37.05 44.7 35.5 46.8L34.55 47.9Q31.8 50.5 29.3 51.75Q26.75 52.95 24.9 53.2Q19.4 53.65 15.1 56L7.4 60.3Q2.2 62.65 -1.75 62.6Q-4.75 62.5 -7.05 61L-15.85 55.05Q-17.7 53.65 -20 52.8Q-21.7 52.1 -23.65 51.75L-24.25 51.6Q-29 50.1 -32 48.3Q-40.65 41.8 -35.9 34.7Q-31.6 28.45 -19.85 37.5Q-16.7 39.95 -13 43.5L-10.25 45.05Q-0.85 49.5 10.55 43.9Q23.6 37.45 21.8 29.2L19.3 22.95Q12.3 9.35 10.1 -8.95Q6.7 -37.55 14.2 -71.9L14.2 -62.7M21.55,48.75Q19.55 47.05 16.05 50L14.45 51.2Q12.4 53.1 10.35 56.75L10.2 57.1L10.6 56.6L12.35 55.05L13.3 54.35Q14.25 53.75 15.5 53.2Q21.25 51.5 21.75 49.25L21.55 48.75M-26.55,47.25Q-26.1 49.5 -20.35 51.2L-20 51.35L-18.1 52.35L-17.2 53.05Q-16.15 53.8 -15.45 54.6L-15 55.1L-15.15 54.75Q-17.25 51.1 -19.3 49.2L-20 48.6L-20.9 48Q-24.4 45.05 -26.35 46.75L-26.55 47.25" />
<radialGradient
id="RadialGradID_4039" gradientUnits="userSpaceOnUse" gradientTransform="matrix(0.0105896, 0.000976563, -0.00038147, 0.0406952, 1.5, -11.95)" spreadMethod ="pad" cx="0" cy="0" r="819.2" fx="0" fy="0" >
<stop  offset="0.313725"  style="stop-color:#FFFFFF;stop-opacity:0.431373" />
<stop  offset="1"  style="stop-color:#FFFFFF;stop-opacity:0" />
</radialGradient>
<path style="fill:url(#RadialGradID_4039) " d="M6.3,-34.75Q8.1 -24.9 8 -11.2Q7.75 2.45 5.75 11.9L4.45 16.85L4 17.55Q2.7 21.3 1.05 21.2Q-0.75 21 -2.1 16.85L-2.4 16.05L-3.65 11.2Q-5.5 1.35 -5.35 -12.35Q-5.15 -26.2 -3.05 -35.8Q-1.15 -45.15 1.6 -44.75Q4.4 -44.55 6.3 -34.75" />
<radialGradient
id="RadialGradID_4040" gradientUnits="userSpaceOnUse" gradientTransform="matrix(0.00817871, 0.000473022, -0.000473022, 0.00817871, -0.6, 32.35)" spreadMethod ="pad" cx="0" cy="0" r="819.2" fx="0" fy="0" >
<stop  offset="0.313725"  style="stop-color:#FFFFFF;stop-opacity:0.431373" />
<stop  offset="1"  style="stop-color:#FFFFFF;stop-opacity:0" />
</radialGradient>
<path style="fill:url(#RadialGradID_4040) " d="M3.25,37.15Q1.3 39 -1.3 38.8Q-3.95 38.6 -5.8 36.5Q-7.6 34.55 -7.45 31.9Q-7.4 29.25 -5.5 27.4Q-3.35 25.6 -0.55 25.75Q2.15 25.8 3.95 27.75Q5.8 29.9 5.6 32.65Q5.4 35.35 3.25 37.15" />
</g>
</svg>
